X:1408
T:She's Ower Young To Marry Yet
P:She's Ower Young To Marry Yet
C:Traditional (Surenne)
R:Strathspey (8x32)
B:RSCDS 14-8
Z:Anselm Lingnau <anselm@strathspey.org>
M:4/4
L:1/8
K:C
C/|"C"E>G G>A c>d e>d|"F"F>A "C"G>A "G"d>e d>D|\
   "C"E>G "G"G>A "C"c>d "F"e>c|e<g "G7"d>e "C"c<C C>C|
   "C"E>G G>A c>d e>d|"F"F>A "C"G>A "G"d>e d>D|\
   "C"E>G "G"G>A "C"c>d "F"e>c|e<g "G7"d>e "C"c<C C||
g/|"C"e>c g>c e>f g>a|e>c g>c e<d "G"d>g|\
   "C"e>c g>c e>f g>a|e>c "G"d>B "C"c>C C3/2 g/|
   "C"e>c g>c e>f g>a|e>c g>c e<d "G"d>g|\
   "C"e>c g>c e>f g>a|e>c "G"d>B "C"c>C C3/2|]
